packages/foundations/assets/icons/functional/images/layout/resize_20_filled.svg

<svg width="20" height="20" viewBox="0 0 20 20" fill="none" xmlns="http://www.w3.org/2000/svg">
<g clip-path="url(#clip0_2209_4371)">
<path fill-rule="evenodd" clip-rule="evenodd" d="M7 12C7.51284 12 8 12.4188 8 13V17C8 17.5128 7.58486 18 7 18H3C2.48716 18 2 17.5791 2 17V13C2 12.4872 2.43678 12 3 12H7ZM16 2C17.0544 2 18 2.85281 18 4V14C18 15.0544 17.1592 16 16 16H10V11C10 10.4872 9.56613 10 9.00111 10H4V4C4 2.94564 4.86003 2 5.99852 2H16Z" fill="#1A1C1F"/>
</g>
<defs>
<clipPath id="clip0_2209_4371">
<rect width="20" height="20" fill="white"/>
</clipPath>
</defs>
</svg>

<svg xmlns="http://www.w3.org/2000/svg" width="20" height="20" fill="none"><g clip-path="url(#a)"><path fill="#1A1C1F" fill-rule="evenodd" d="M7 12c.513 0 1 .419 1 1v4c0 .513-.415 1-1 1H3c-.513 0-1-.42-1-1v-4c0-.513.437-1 1-1zm9-10c1.054 0 2 .853 2 2v10c0 1.054-.84 2-2 2h-6v-5c0-.513-.434-1-.999-1H4V4c0-1.054.86-2 1.999-2z" clip-rule="evenodd"/></g><defs><clipPath id="a"><path fill="#fff" d="M0 0h20v20H0z"/></clipPath></defs></svg>
